images/PARTNERS/SVG/Icon Equipos.svg

<svg width="87" height="87" viewBox="0 0 87 87" fill="none" xmlns="http://www.w3.org/2000/svg">
<circle cx="43.5" cy="43.5" r="43.5" fill="white"/>
<path d="M69.6063 16.5607C77.0466 23.6363 81.6846 33.6316 81.6846 44.7109C81.6846 66.1626 64.2939 83.5532 42.8423 83.5532C21.3906 83.5532 3.99994 66.1626 3.99994 44.7109C3.99994 31.4163 10.6785 19.6827 20.8661 12.6795" stroke="url(#paint0_linear_57_27)" stroke-width="2" stroke-miterlimit="10"/>
<path d="M65.4336 18.384C68.5772 18.384 71.1256 15.8356 71.1256 12.692C71.1256 9.54839 68.5772 7 65.4336 7C62.29 7 59.7416 9.54839 59.7416 12.692C59.7416 15.8356 62.29 18.384 65.4336 18.384Z" stroke="url(#paint1_linear_57_27)" stroke-width="2" stroke-miterlimit="10"/>
<path d="M46.9349 41.4525C50.7512 42.9871 53.3197 45.59 54.4364 49.547C54.731 50.5908 54.8617 51.7047 54.9152 52.7944C54.9778 54.0639 54.264 55.005 53.3518 55.7778C51.4622 57.3797 49.2273 58.1717 46.865 58.622C43.0464 59.349 39.306 59.0577 35.7156 57.4842C31.8214 55.7772 30.8428 53.5817 32.0975 49.4356C33.1617 45.9184 35.3578 43.4049 38.6164 41.8795C38.8914 41.7507 39.168 41.626 39.5731 41.4403C37.3015 39.767 36.1528 37.5941 36.275 34.79C36.3652 32.7227 37.2249 31.0424 38.7286 29.6946C41.5692 27.1487 46.1394 27.5194 48.5873 30.4837C50.9405 33.3325 51.2313 38.2387 46.9349 41.4525ZM43.1027 57.4621C46.0802 57.3519 48.9586 56.8187 51.5952 55.2156C53.1068 54.2965 53.6099 53.0282 53.3237 51.28C52.5192 46.368 48.3732 42.6808 43.6599 42.4777C39.0587 42.2793 34.377 45.4994 33.2913 50.8948C32.7837 53.4181 33.2502 54.4102 35.4992 55.6478C37.8655 56.9498 40.4458 57.3374 43.1027 57.4621ZM43.2604 40.8503C46.2723 40.8462 48.767 38.3339 48.7828 35.2884C48.7991 32.2133 46.2363 29.5473 43.2655 29.5484C40.2373 29.5496 37.7894 32.1153 37.7995 35.2785C37.8102 38.4116 40.2046 40.8543 43.2604 40.8503Z" fill="url(#paint2_linear_57_27)"/>
<path d="M56.2916 53.0398C56.2916 52.4521 56.2916 52.0355 56.2916 51.6717C57.6516 51.4582 59.0218 51.4239 60.2742 51.0114C63.8061 49.8481 64.4292 48.82 62.4258 45.1803C60.6477 41.9497 56.1372 40.7963 52.5879 43.7141C52.2313 43.4043 51.8696 43.0898 51.3873 42.6709C52.2273 42.0994 52.9862 41.5825 53.8161 41.0179C52.5383 39.785 51.82 38.2753 52.0144 36.4099C52.1569 35.0412 52.7361 33.8988 53.7665 33.0215C55.7738 31.3122 58.7012 31.513 60.5142 33.4689C62.4613 35.5692 62.2889 38.4058 59.9998 41.0406C60.299 41.2129 60.5869 41.3695 60.8663 41.5407C63.3148 43.0429 64.6934 45.2418 64.9818 48.1748C65.0985 49.3607 64.6483 50.2583 63.7734 50.9516C61.5857 52.6859 59.0606 53.1268 56.2916 53.0398ZM53.5355 36.9165C53.522 38.8926 54.9851 40.4604 56.8747 40.4928C58.6978 40.5242 60.3316 38.8955 60.3643 37.0134C60.397 35.1027 58.8697 33.5043 56.9767 33.4683C55.0685 33.4323 53.5485 34.9554 53.5355 36.9165Z" fill="url(#paint3_linear_57_27)"/>
<path d="M26.8135 41.1038C24.5887 38.4662 24.4839 35.5797 26.463 33.5948C28.2676 31.7851 31.2006 31.7103 33.0406 33.4265C35.2327 35.4717 35.213 38.1018 32.9944 41.0446C33.72 41.543 34.4479 42.0426 35.2502 42.5932C34.8085 42.9935 34.4767 43.2947 34.0823 43.6521C32.7268 42.606 31.2423 42.0124 29.5003 42.0722C26.4749 42.176 23.5537 45.0515 23.5554 48.1846C23.5554 48.7364 24.0118 49.4524 24.467 49.8086C25.7949 50.8478 27.409 51.1332 29.04 51.2586C29.4445 51.2899 29.8535 51.2632 30.307 51.2632C30.307 51.8092 30.307 52.2507 30.307 52.7787C27.7566 52.9 25.4061 52.4793 23.3227 50.9453C22.0191 49.9862 21.823 48.6424 22.1222 47.1495C22.6833 44.3483 24.2433 42.3501 26.8135 41.1038ZM26.5943 37.0424C26.587 38.975 27.9673 40.4371 29.8124 40.4522C31.6152 40.4667 33.1352 38.9507 33.1583 37.1149C33.1814 35.2693 31.7037 33.7358 29.8873 33.7213C28.0129 33.7056 26.6016 35.1294 26.5943 37.0424Z" fill="url(#paint4_linear_57_27)"/>
<defs>
<linearGradient id="paint0_linear_57_27" x1="3.99994" y1="83.5548" x2="81.6846" y2="83.5548" gradientUnits="userSpaceOnUse">
<stop stop-color="#1723FF"/>
<stop offset="1" stop-color="#30E35E"/>
</linearGradient>
<linearGradient id="paint1_linear_57_27" x1="59.7416" y1="18.3842" x2="71.1256" y2="18.3842" gradientUnits="userSpaceOnUse">
<stop stop-color="#1723FF"/>
<stop offset="1" stop-color="#30E35E"/>
</linearGradient>
<linearGradient id="paint2_linear_57_27" x1="22" y1="59.0007" x2="65" y2="59.0007" gradientUnits="userSpaceOnUse">
<stop stop-color="#1723FF"/>
<stop offset="1" stop-color="#30E35E"/>
</linearGradient>
<linearGradient id="paint3_linear_57_27" x1="22" y1="59.0007" x2="65" y2="59.0007" gradientUnits="userSpaceOnUse">
<stop stop-color="#1723FF"/>
<stop offset="1" stop-color="#30E35E"/>
</linearGradient>
<linearGradient id="paint4_linear_57_27" x1="22" y1="59.0007" x2="65" y2="59.0007" gradientUnits="userSpaceOnUse">
<stop stop-color="#1723FF"/>
<stop offset="1" stop-color="#30E35E"/>
</linearGradient>
</defs>
</svg>

<svg width="87" height="87" fill="none" xmlns="http://www.w3.org/2000/svg"><circle cx="43.5" cy="43.5" r="43.5" fill="#fff"/><path d="M69.606 16.56c7.44 7.076 12.079 17.072 12.079 28.15 0 21.453-17.391 38.843-38.843 38.843C21.391 83.553 4 66.163 4 44.711c0-13.295 6.678-25.028 16.866-32.032" stroke="url(#a)" stroke-width="2" stroke-miterlimit="10"/><path d="M65.434 18.384a5.692 5.692 0 1 0 0-11.384 5.692 5.692 0 0 0 0 11.384Z" stroke="url(#b)" stroke-width="2" stroke-miterlimit="10"/><path d="M46.935 41.453c3.816 1.534 6.385 4.137 7.501 8.094.295 1.044.426 2.158.48 3.247.062 1.27-.652 2.211-1.564 2.984-1.89 1.602-4.125 2.394-6.487 2.844-3.819.727-7.559.436-11.15-1.138-3.894-1.707-4.872-3.902-3.618-8.048 1.065-3.518 3.26-6.031 6.52-7.556.274-.13.551-.254.956-.44-2.272-1.673-3.42-3.846-3.298-6.65.09-2.067.95-3.748 2.454-5.095 2.84-2.546 7.41-2.176 9.858.789 2.353 2.849 2.644 7.755-1.652 10.968Zm-3.832 16.01c2.977-.111 5.856-.644 8.492-2.247 1.512-.92 2.015-2.188 1.729-3.936-.805-4.912-4.95-8.6-9.664-8.802-4.601-.199-9.283 3.021-10.369 8.417-.507 2.523-.04 3.515 2.208 4.753 2.366 1.302 4.947 1.69 7.604 1.814Zm.157-16.613c3.012-.004 5.507-2.516 5.523-5.562.016-3.075-2.547-5.74-5.517-5.74-3.029.002-5.477 2.567-5.466 5.73.01 3.134 2.405 5.576 5.46 5.572Z" fill="url(#c)"/><path d="M56.292 53.04v-1.368c1.36-.214 2.73-.248 3.982-.66 3.532-1.164 4.155-2.192 2.152-5.832-1.778-3.23-6.289-4.384-9.838-1.466l-1.2-1.043 2.428-1.653c-1.278-1.233-1.996-2.743-1.802-4.608.143-1.369.722-2.511 1.752-3.388 2.008-1.71 4.935-1.509 6.748.447 1.947 2.1 1.775 4.937-.514 7.572.299.172.587.329.866.5 2.449 1.502 3.827 3.7 4.116 6.634.117 1.186-.334 2.083-1.209 2.777-2.187 1.734-4.712 2.175-7.481 2.088Zm-2.757-16.123c-.013 1.976 1.45 3.543 3.34 3.576 1.823.031 3.457-1.598 3.49-3.48.032-1.91-1.495-3.509-3.388-3.545-1.908-.036-3.428 1.487-3.441 3.448Z" fill="url(#d)"/><path d="M26.814 41.104c-2.225-2.638-2.33-5.524-.351-7.51 1.805-1.809 4.738-1.884 6.578-.168 2.192 2.046 2.172 4.676-.047 7.619l2.256 1.548-1.168 1.06c-1.355-1.047-2.84-1.64-4.582-1.58-3.025.103-5.946 2.978-5.945 6.112 0 .551.457 1.267.912 1.624 1.328 1.039 2.942 1.324 4.573 1.45.405.03.814.004 1.267.004v1.516c-2.55.121-4.9-.3-6.984-1.834-1.304-.959-1.5-2.303-1.2-3.795.56-2.802 2.12-4.8 4.69-6.046Zm-.22-4.062c-.007 1.933 1.373 3.395 3.218 3.41 1.803.015 3.323-1.501 3.346-3.337.023-1.846-1.454-3.38-3.27-3.394-1.875-.015-3.286 1.408-3.294 3.321Z" fill="url(#e)"/><defs><linearGradient id="a" x1="4" y1="83.555" x2="81.685" y2="83.555" gradientUnits="userSpaceOnUse"><stop stop-color="#1723FF"/><stop offset="1" stop-color="#30E35E"/></linearGradient><linearGradient id="b" x1="59.742" y1="18.384" x2="71.126" y2="18.384" gradientUnits="userSpaceOnUse"><stop stop-color="#1723FF"/><stop offset="1" stop-color="#30E35E"/></linearGradient><linearGradient id="c" x1="22" y1="59.001" x2="65" y2="59.001" gradientUnits="userSpaceOnUse"><stop stop-color="#1723FF"/><stop offset="1" stop-color="#30E35E"/></linearGradient><linearGradient id="d" x1="22" y1="59.001" x2="65" y2="59.001" gradientUnits="userSpaceOnUse"><stop stop-color="#1723FF"/><stop offset="1" stop-color="#30E35E"/></linearGradient><linearGradient id="e" x1="22" y1="59.001" x2="65" y2="59.001" gradientUnits="userSpaceOnUse"><stop stop-color="#1723FF"/><stop offset="1" stop-color="#30E35E"/></linearGradient></defs></svg>
